X:35
T:March of the Ents
C:Thomas Bartlett
D:Popcorn Behavior, _Journeywork_
M:6/8
K:DDor
A,DD EDD | FDD EDC | A,DD EDD | (3FGA F EDC | \
A,DD EDD | FDD EDC | B,CD EFG |1 AFG EFC  :: \
Ddd Dcc | GAF EDC | Ddd Dcc | Bcd efe | \
ddd DcD | GAF EDC | B,CD EFG | AFG EFC :| "fine"AFG EFC | D6 ||
